X:262
T:The South Wind
R:waltz
M:3/4
L:1/8
K:Gmaj
dc|B3A G2|B3c d2|A4 B2|A4 dc|
B3A G2|E3D E2|G6-|G2 z2 dc|
B3A G2|B3c d2|A4 B2|A4 dc|
B3A G2|E3D E2|G6-|G2 z2 (3d-e-f|
g3a f2|g3f e2|d4 e2|d4 c2|
B3A G2|B3c d2|A4 B2|A2 z2 (3d-e-f|
g3a f2|g3f e2|d4 e2|d4 c2|
Bd3 G2|Ac3 F2|G6-|G2 z2 ||

